X:1
T:Prince Charlie's Last View of Scotland
T:Prince Charlie's Last View of Scotland
T:William Marshall
C:William Marshall
L:1/8
Q:1/4=120
M:6/8
K:Gmin
V:1 treble 
V:1
|:S"^Slow and Tender"!p! (G/A/) | B>cB({B} A2 G/^F/) | (G<DB) =FDB, | B>cB({B} A2 G/^F/) | %4
 (GAc)({^c} d2 D) | B>cB({B} A2 G/^F/) | (G<DB) =FD(B,/C/) | D>^CD({A,} B,2 A,) | %8
 G,(G^F){!fermata!A} !fermata!G2!fine! :| D |"^cresc." B>AG A(^FD) | B>cd (G^F)D | B>AG c>BA | %13
({^c} d2 ^F) G2 z/!f! D/ | [DB]3 [Ec]3 | d>^cd !fermata!g a/b/ |{e} dcB{d} cBA | %17
"^rall."({A} G/^F/)(G/A/)B/c/{!fermata!^c} !fermata!d2 D!D.S.! |] %18

